X:1
T:Perez, 11.11.11.11
T:Perez, 11.11.11.11
T:Sylvester Main, 1864
T:Public Domain Courtesy of the Cyber Hymnal™
C:Sylvester Main, 1864
Z:Public Domain
Z:Courtesy of the Cyber Hymnal™
%%score ( 1 2 ) ( 3 4 )
L:1/8
Q:1/4=100
M:6/8
K:F
V:1 treble 
V:2 treble 
V:3 bass 
V:4 bass 
V:1
 [Ac]2 [FA] ([FA][GB])[Ac] | [Fd]3 [FB]3 | [EB]2 [EG] ([EG][FA])[GB] | ([A-c]3 [FA]3) | %4
 [Fc]2 [FA] ([FA][EB])[Fc] | [Fd]3 [Ff]3 | [Ac]2 [FA] [EA]2 [EG] | F6 | [EG]2 [EG] [EG]2 [FA] | %9
 [GB]3 [EG]3 | [FA]2 [FA] [FB]2 [Fd] | (c3 A3) | [Ac]2 [FA] ([FA]B)[Fc] | [Fd]3 [Ff]3 | %14
 [Ac]2 [FA] [EA]2 [EG] | F6 |] %16
V:2
 x6 | x6 | x6 | x6 | x6 | x6 | x6 | F6 | x6 | x6 | x6 | F6 | x6 | x6 | x6 | F6 |] %16
V:3
 [F,C]2 [F,C] [F,C]2 [F,C] | [B,,B,]3 [B,,D]3 | [C,G,]2 [C,C] [C,C]2 [C,C] | [F,C]6 | %4
 [F,A,]2 [F,C] C2 [A,C] | B,3 [B,D]3 | C2 [C,C] [C,C]2 [C,B,] | [F,A,]6 | %8
 [C,C]2 [C,C] [C,C]2 [C,C] | [C,C]3 [C,C]3 | [F,C]2 [_E,C] [D,B,]2 [B,,B,] | (A,3 C3) | %12
 [F,C]2 [F,C] (CG,)[F,A,] | [B,,B,]3 [B,,D]3 | [C,C]2 [C,C] [C,C]2 [C,B,] | [F,A,]6 |] %16
V:4
 x6 | x6 | x6 | x6 | x3 (F,G,) x | B,3 x3 | C2 x4 | x6 | x6 | x6 | x6 | F,6 | x3 F,2 x | x6 | x6 | %15
 x6 |] %16

